static/images/board/ToriPlain.svg

<svg height="420" viewBox="0 0 364 420" width="364" xmlns="http://www.w3.org/2000/svg"><path d="m0 0h363.98526v420h-363.98526z" fill="#fdd775"/><path d="m-.00000038 0v419.88774m51.99999938-419.88774v419.88774m52.000001-419.88774v419.88774m52-419.88774v419.88774m52-419.88774v419.88774m52-419.88774v419.88774m52-419.88774v419.88774m52-419.88774v419.88774m-364.00000038-419.88774h363.98526038m-363.98526038 60h363.98526038m-363.98526038 60h363.98526038m-363.98526038 60h363.98526038m-363.98526038 60h363.98526038m-363.98526038 60h363.98526038m-363.98526038 60h363.98526038m-363.98526038 60h363.98526038" fill="none" stroke="#000"/><circle cx="104.00002" cy="119.99999" r="4"/><circle cx="104.00002" cy="300" r="4"/><circle cx="260" cy="119.99999" r="4"/><circle cx="260" cy="300" r="4"/></svg>

<?xml version="1.0" encoding="UTF-8" standalone="no"?>
<svg
   version="1.1"
   viewBox="0 0 364 420"
   id="svg851"
   sodipodi:docname="PlainToriBoard.svg"
   inkscape:version="1.2 (dc2aedaf03, 2022-05-15)"
   width="364"
   height="420"
   xmlns:inkscape="http://www.inkscape.org/namespaces/inkscape"
   xmlns:sodipodi="http://sodipodi.sourceforge.net/DTD/sodipodi-0.dtd"
   xmlns="http://www.w3.org/2000/svg"
   xmlns:svg="http://www.w3.org/2000/svg"
   xmlns:rdf="http://www.w3.org/1999/02/22-rdf-syntax-ns#"
   xmlns:cc="http://creativecommons.org/ns#"
   xmlns:dc="http://purl.org/dc/elements/1.1/">
  <metadata
     id="metadata855">
    <rdf:RDF>
      <cc:Work
         rdf:about="">
        <dc:format>image/svg+xml</dc:format>
        <dc:type
           rdf:resource="http://purl.org/dc/dcmitype/StillImage" />
        <dc:title />
      </cc:Work>
    </rdf:RDF>
  </metadata>
  <sodipodi:namedview
     pagecolor="#ffffff"
     bordercolor="#666666"
     borderopacity="1"
     objecttolerance="10"
     gridtolerance="10"
     guidetolerance="10"
     inkscape:pageopacity="0"
     inkscape:pageshadow="2"
     inkscape:window-width="3840"
     inkscape:window-height="2050"
     id="namedview853"
     showgrid="false"
     inkscape:zoom="3.1407406"
     inkscape:cx="192.47053"
     inkscape:cy="228.6085"
     inkscape:window-x="3828"
     inkscape:window-y="-12"
     inkscape:window-maximized="1"
     inkscape:current-layer="svg851"
     inkscape:document-rotation="0"
     inkscape:showpageshadow="2"
     inkscape:pagecheckerboard="0"
     inkscape:deskcolor="#d1d1d1" />
  <defs
     id="defs839" />
  <rect
     style="opacity:1;fill:#fdd775;stroke:none;stroke-width:22.6772;stroke-linecap:round;stroke-linejoin:round;paint-order:stroke fill markers;fill-opacity:1"
     id="rect14625"
     width="363.98526"
     height="420"
     x="-3.7999999e-07"
     y="0" />
  <path
     inkscape:connector-curvature="0"
     d="M -3.8e-7,0 V 419.88774 M 51.999999,0 V 419.88774 M 104,0 V 419.88774 M 156,0 V 419.88774 M 208,0 V 419.88774 M 260,0 V 419.88774 M 312,0 V 419.88774 M 364,0 V 419.88774 M -3.8e-7,0 H 363.98526 M -3.8e-7,60 H 363.98526 M -3.8e-7,120 H 363.98526 M -3.8e-7,180 H 363.98526 M -3.8e-7,240 H 363.98526 M -3.8e-7,300 H 363.98526 M -3.8e-7,360 H 363.98526 M -3.8e-7,420 H 363.98526"
     style="fill:none;stroke:#000000;stroke-width:1px"
     id="path22173"
     sodipodi:nodetypes="cccccccccccccccccccccccccccccccc" />
  <circle
     cx="104.00002"
     cy="119.99999"
     r="4"
     id="circle843" />
  <circle
     cx="104.00002"
     cy="300"
     r="4"
     id="circle845" />
  <circle
     cx="260"
     cy="119.99999"
     r="4"
     id="circle847" />
  <circle
     cx="260"
     cy="300"
     r="4"
     id="circle849" />
</svg>
